mc/waste-theme/assets/themes/natuurpunt/watermill.svg

<svg xmlns="http://www.w3.org/2000/svg" viewBox="-10 8 35 1">
    <defs>
        <style>.cls-1{fill:#fff;}</style>
    </defs>
    <g id="Layer_2" data-name="Layer 2">
        <g id="Layer_1-2" data-name="Layer 1">
            <path class="cls-1"
                  d="M9.35,7.69l5.83-5.82-.6-.6L13.92.6,8.64,5.89a1.56,1.56,0,0,0-1.05-.43l-.24,0L1.87,0l-.6.6L.6,1.26,6,6.67a1.6,1.6,0,0,0-.11.39h0l-.1.48L0,13.31l.6.6.66.67,3.87-3.87L3.57,18.27H2.44v1.47H13V18.27H11.83l-1.4-6,2.88,2.88.6-.6.67-.66L9.66,9ZM8.8,18.16H6.6V15.29A1.09,1.09,0,0,1,7.69,14.2h0A1.09,1.09,0,0,1,8.8,15.29Z"/>
        </g>
    </g>
</svg>

<?xml version="1.0" encoding="UTF-8" standalone="no"?>
<svg
   viewBox="-10 8 15.18 19.74"
   version="1.1"
   id="svg1054"
   sodipodi:docname="watermill.svg"
   width="15.18"
   height="19.74"
   inkscape:version="1.1.1 (1:1.1+202109281949+c3084ef5ed)"
   xmlns:inkscape="http://www.inkscape.org/namespaces/inkscape"
   xmlns:sodipodi="http://sodipodi.sourceforge.net/DTD/sodipodi-0.dtd"
   xmlns="http://www.w3.org/2000/svg"
   xmlns:svg="http://www.w3.org/2000/svg">
  <sodipodi:namedview
     id="namedview1056"
     pagecolor="#505050"
     bordercolor="#eeeeee"
     borderopacity="1"
     inkscape:pageshadow="0"
     inkscape:pageopacity="0"
     inkscape:pagecheckerboard="0"
     showgrid="false"
     inkscape:zoom="46.114286"
     inkscape:cx="7.5030979"
     inkscape:cy="8.5114622"
     inkscape:current-layer="svg1054" />
  <defs
     id="defs1048">
    <style
       id="style1046">.cls-1{fill:#fff;}</style>
  </defs>
  <g
     id="Layer_2"
     data-name="Layer 2"
     transform="translate(-10,8)">
    <g
       id="Layer_1-2"
       data-name="Layer 1">
      <path
         class="cls-1"
         d="M 9.35,7.69 15.18,1.87 14.58,1.27 13.92,0.6 8.64,5.89 A 1.56,1.56 0 0 0 7.59,5.46 H 7.35 L 1.87,0 1.27,0.6 0.6,1.26 6,6.67 A 1.6,1.6 0 0 0 5.89,7.06 v 0 L 5.79,7.54 0,13.31 l 0.6,0.6 0.66,0.67 3.87,-3.87 -1.56,7.56 H 2.44 v 1.47 H 13 v -1.47 h -1.17 l -1.4,-6 2.88,2.88 0.6,-0.6 0.67,-0.66 L 9.66,9 Z M 8.8,18.16 H 6.6 V 15.29 A 1.09,1.09 0 0 1 7.69,14.2 v 0 a 1.09,1.09 0 0 1 1.11,1.09 z"
         id="path1050" />
    </g>
  </g>
</svg>
